remix/Development/git-repository-line.svg

<svg viewBox="0 0 24 24" fill="currentColor" xmlns="http://www.w3.org/2000/svg"><path d="M13 21V23.5L10 21.5L7 23.5V21H6.5C4.567 21 3 19.433 3 17.5V5C3 3.34315 4.34315 2 6 2H20C20.5523 2 21 2.44772 21 3V20C21 20.5523 20.5523 21 20 21H13ZM13 19H19V16H6.5C5.67157 16 5 16.6716 5 17.5C5 18.3284 5.67157 19 6.5 19H7V17H13V19ZM19 14V4H6V14.0354C6.1633 14.0121 6.33024 14 6.5 14H19ZM7 5H9V7H7V5ZM7 8H9V10H7V8ZM7 11H9V13H7V11Z"/></svg>

<svg viewBox="0 0 24 24" xmlns="http://www.w3.org/2000/svg"><path fill="none" d="M0 0h24v24H0Z"/><path d="M13 21v2.5l-3-2 -3 2V21h-.5v0C4.56 21 3 19.43 3 17.5V5v0c0-1.66 1.34-3 3-3h14v0c.55 0 1 .44 1 1v17 0c0 .55-.45 1-1 1h-7Zm0-2h6v-3H6.5v0c-.83 0-1.5.67-1.5 1.5 0 .82.67 1.5 1.5 1.5H7v-2h6v2Zm6-5V4H6v10.035 0c.16-.03.33-.04.5-.04H19ZM7 5h2v2H7V5Zm0 3h2v2H7V8Zm0 3h2v2H7v-2Z"/></svg>
